X:27
T:27.  Kaitlyn Smith
C:c 2003 Harry Bolick  
R:Stomp
O:United States
A:Hastings-On-Hudson, New York
M:4/4
L:1/8
Q:250
K:F
|: "F" FF cF "Bb"d3 c | "Dm" dc AG F2 D2|"F" FF cF "Bb"d4  | "Dm" fe dc  A4 |
 "F" FF cF "Bb" d3 (c |"Dm" d)c AG F2 D2 | "C" CD FG (cA) cd |(cA) (GD) "F" F4:|
|: "Bb" B2B2 "F"A2 cA | "Dm" dc AG F2 D2 | "Bb" B2B2 "F" A2 de  | "Bb"fe dc "Dm" A4 |
"Bb" B2B2 "F"A2 cA | "Dm" dc AG F2 D2 | "C"CD FG (cA) cd |(cA) (GD)  "F"F4:|
